public/images/icons/Help.svg

<svg width="42" height="63" viewBox="0 0 42 63" fill="none" xmlns="http://www.w3.org/2000/svg">
<path d="M15.9375 39.5938C15.9375 36.5521 16.2812 34.1562 16.9688 32.4062C17.6562 30.6354 18.7708 29.1042 20.3125 27.8125C21.8542 26.5208 23.0208 25.3438 23.8125 24.2812C24.625 23.1979 25.0312 22.0104 25.0312 20.7188C25.0312 17.5729 23.6771 16 20.9688 16C19.7188 16 18.7083 16.4583 17.9375 17.375C17.1667 18.2917 16.7604 19.5312 16.7188 21.0938H6.15625C6.19792 16.9271 7.51042 13.6875 10.0938 11.375C12.6771 9.04167 16.3021 7.875 20.9688 7.875C25.6146 7.875 29.2083 8.94792 31.75 11.0938C34.3125 13.2396 35.5938 16.2917 35.5938 20.25C35.5938 21.9792 35.25 23.5521 34.5625 24.9688C33.875 26.3854 32.7708 27.8333 31.25 29.3125L27.6562 32.6562C26.6354 33.6354 25.9271 34.6458 25.5312 35.6875C25.1354 36.7083 24.9167 38.0104 24.875 39.5938H15.9375ZM14.6562 49.0938C14.6562 47.5521 15.2083 46.2917 16.3125 45.3125C17.4375 44.3125 18.8333 43.8125 20.5 43.8125C22.1667 43.8125 23.5521 44.3125 24.6562 45.3125C25.7812 46.2917 26.3438 47.5521 26.3438 49.0938C26.3438 50.6354 25.7812 51.9062 24.6562 52.9062C23.5521 53.8854 22.1667 54.375 20.5 54.375C18.8333 54.375 17.4375 53.8854 16.3125 52.9062C15.2083 51.9062 14.6562 50.6354 14.6562 49.0938Z" fill="#5B5B5B"/>
</svg>

<svg xmlns="http://www.w3.org/2000/svg" width="42" height="63" fill="none"  xmlns:v="https://vecta.io/nano"><path d="M15.938 39.594c0-3.042.344-5.438 1.031-7.188.687-1.771 1.802-3.302 3.344-4.594s2.708-2.469 3.5-3.531c.813-1.083 1.219-2.271 1.219-3.562 0-3.146-1.354-4.719-4.062-4.719-1.25 0-2.261.458-3.031 1.375s-1.177 2.156-1.219 3.719H6.156c.042-4.167 1.354-7.406 3.938-9.719 2.583-2.333 6.208-3.5 10.875-3.5 4.646 0 8.24 1.073 10.781 3.219 2.563 2.146 3.844 5.198 3.844 9.156 0 1.729-.344 3.302-1.031 4.719s-1.792 2.864-3.312 4.344l-3.594 3.344c-1.021.979-1.729 1.99-2.125 3.031-.396 1.021-.614 2.323-.656 3.906h-8.937zm-1.281 9.5c0-1.542.552-2.802 1.656-3.781 1.125-1 2.521-1.5 4.188-1.5s3.052.5 4.156 1.5c1.125.979 1.688 2.24 1.688 3.781s-.563 2.812-1.688 3.812c-1.104.979-2.489 1.469-4.156 1.469s-3.062-.49-4.187-1.469c-1.104-1-1.656-2.271-1.656-3.812z" fill="#5b5b5b"/></svg>
